bernoullicharts/arcsin_x_sqrt_1-x_x_-1_mean.svg

<?xml version="1.0" encoding="utf-8" standalone="no"?>
<!DOCTYPE svg PUBLIC "-//W3C//DTD SVG 1.1//EN"
  "http://www.w3.org/Graphics/SVG/1.1/DTD/svg11.dtd">
<!-- Created with matplotlib (https://matplotlib.org/) -->
<svg height="345.6pt" version="1.1" viewBox="0 0 460.8 345.6" width="460.8pt" xmlns="http://www.w3.org/2000/svg" xmlns:xlink="http://www.w3.org/1999/xlink">
 <defs>
  <style type="text/css">
*{stroke-linecap:butt;stroke-linejoin:round;}
  </style>
 </defs>
 <g id="figure_1">
  <g id="patch_1">
   <path d="M 0 345.6 
L 460.8 345.6 
L 460.8 0 
L 0 0 
z
" style="fill:#ffffff;"/>
  </g>
  <g id="axes_1">
   <g id="patch_2">
    <path d="M 57.6 307.584 
L 414.72 307.584 
L 414.72 41.472 
L 57.6 41.472 
z
" style="fill:#ffffff;"/>
   </g>
   <g id="matplotlib.axis_1">
    <g id="xtick_1">
     <g id="line2d_1">
      <defs>
       <path d="M 0 0 
L 0 3.5 
" id="m5532372585" style="stroke:#000000;stroke-width:0.8;"/>
      </defs>
      <g>
       <use style="stroke:#000000;stroke-width:0.8;" x="73.800255" xlink:href="#m5532372585" y="307.584"/>
      </g>
     </g>
     <g id="text_1">
      <text style="font-family:DejaVu Sans;font-size:10px;font-style:normal;font-weight:normal;text-anchor:middle;" transform="rotate(-0, 73.800255, 322.182437)" x="73.800255" y="322.182437">0.0</text>
     </g>
    </g>
    <g id="xtick_2">
     <g id="line2d_2">
      <g>
       <use style="stroke:#000000;stroke-width:0.8;" x="138.744153" xlink:href="#m5532372585" y="307.584"/>
      </g>
     </g>
     <g id="text_2">
      <text style="font-family:DejaVu Sans;font-size:10px;font-style:normal;font-weight:normal;text-anchor:middle;" transform="rotate(-0, 138.744153, 322.182437)" x="138.744153" y="322.182437">0.2</text>
     </g>
    </g>
    <g id="xtick_3">
     <g id="line2d_3">
      <g>
       <use style="stroke:#000000;stroke-width:0.8;" x="203.688051" xlink:href="#m5532372585" y="307.584"/>
      </g>
     </g>
     <g id="text_3">
      <text style="font-family:DejaVu Sans;font-size:10px;font-style:normal;font-weight:normal;text-anchor:middle;" transform="rotate(-0, 203.688051, 322.182437)" x="203.688051" y="322.182437">0.4</text>
     </g>
    </g>
    <g id="xtick_4">
     <g id="line2d_4">
      <g>
       <use style="stroke:#000000;stroke-width:0.8;" x="268.631949" xlink:href="#m5532372585" y="307.584"/>
      </g>
     </g>
     <g id="text_4">
      <text style="font-family:DejaVu Sans;font-size:10px;font-style:normal;font-weight:normal;text-anchor:middle;" transform="rotate(-0, 268.631949, 322.182437)" x="268.631949" y="322.182437">0.6</text>
     </g>
    </g>
    <g id="xtick_5">
     <g id="line2d_5">
      <g>
       <use style="stroke:#000000;stroke-width:0.8;" x="333.575847" xlink:href="#m5532372585" y="307.584"/>
      </g>
     </g>
     <g id="text_5">
      <text style="font-family:DejaVu Sans;font-size:10px;font-style:normal;font-weight:normal;text-anchor:middle;" transform="rotate(-0, 333.575847, 322.182437)" x="333.575847" y="322.182437">0.8</text>
     </g>
    </g>
    <g id="xtick_6">
     <g id="line2d_6">
      <g>
       <use style="stroke:#000000;stroke-width:0.8;" x="398.519745" xlink:href="#m5532372585" y="307.584"/>
      </g>
     </g>
     <g id="text_6">
      <text style="font-family:DejaVu Sans;font-size:10px;font-style:normal;font-weight:normal;text-anchor:middle;" transform="rotate(-0, 398.519745, 322.182437)" x="398.519745" y="322.182437">1.0</text>
     </g>
    </g>
    <g id="text_7">
     <text style="font-family:DejaVu Sans;font-size:10px;font-style:normal;font-weight:normal;text-anchor:middle;" transform="rotate(-0, 236.16, 335.860562)" x="236.16" y="335.860562">Input Coin's Heads Probability (λ)</text>
    </g>
   </g>
   <g id="matplotlib.axis_2">
    <g id="ytick_1">
     <g id="line2d_7">
      <defs>
       <path d="M 0 0 
L -3.5 0 
" id="mde4c881ea0" style="stroke:#000000;stroke-width:0.8;"/>
      </defs>
      <g>
       <use style="stroke:#000000;stroke-width:0.8;" x="57.6" xlink:href="#mde4c881ea0" y="295.488"/>
      </g>
     </g>
     <g id="text_8">
      <text style="font-family:DejaVu Sans;font-size:10px;font-style:normal;font-weight:normal;text-anchor:end;" transform="rotate(-0, 50.6, 299.287219)" x="50.6" y="299.287219">0.0</text>
     </g>
    </g>
    <g id="ytick_2">
     <g id="line2d_8">
      <g>
       <use style="stroke:#000000;stroke-width:0.8;" x="57.6" xlink:href="#mde4c881ea0" y="255.43502"/>
      </g>
     </g>
     <g id="text_9">
      <text style="font-family:DejaVu Sans;font-size:10px;font-style:normal;font-weight:normal;text-anchor:end;" transform="rotate(-0, 50.6, 259.234239)" x="50.6" y="259.234239">0.1</text>
     </g>
    </g>
    <g id="ytick_3">
     <g id="line2d_9">
      <g>
       <use style="stroke:#000000;stroke-width:0.8;" x="57.6" xlink:href="#mde4c881ea0" y="215.38204"/>
      </g>
     </g>
     <g id="text_10">
      <text style="font-family:DejaVu Sans;font-size:10px;font-style:normal;font-weight:normal;text-anchor:end;" transform="rotate(-0, 50.6, 219.181258)" x="50.6" y="219.181258">0.2</text>
     </g>
    </g>
    <g id="ytick_4">
     <g id="line2d_10">
      <g>
       <use style="stroke:#000000;stroke-width:0.8;" x="57.6" xlink:href="#mde4c881ea0" y="175.32906"/>
      </g>
     </g>
     <g id="text_11">
      <text style="font-family:DejaVu Sans;font-size:10px;font-style:normal;font-weight:normal;text-anchor:end;" transform="rotate(-0, 50.6, 179.128278)" x="50.6" y="179.128278">0.3</text>
     </g>
    </g>
    <g id="ytick_5">
     <g id="line2d_11">
      <g>
       <use style="stroke:#000000;stroke-width:0.8;" x="57.6" xlink:href="#mde4c881ea0" y="135.276079"/>
      </g>
     </g>
     <g id="text_12">
      <text style="font-family:DejaVu Sans;font-size:10px;font-style:normal;font-weight:normal;text-anchor:end;" transform="rotate(-0, 50.6, 139.075298)" x="50.6" y="139.075298">0.4</text>
     </g>
    </g>
    <g id="ytick_6">
     <g id="line2d_12">
      <g>
       <use style="stroke:#000000;stroke-width:0.8;" x="57.6" xlink:href="#mde4c881ea0" y="95.223099"/>
      </g>
     </g>
     <g id="text_13">
      <text style="font-family:DejaVu Sans;font-size:10px;font-style:normal;font-weight:normal;text-anchor:end;" transform="rotate(-0, 50.6, 99.022318)" x="50.6" y="99.022318">0.5</text>
     </g>
    </g>
    <g id="ytick_7">
     <g id="line2d_13">
      <g>
       <use style="stroke:#000000;stroke-width:0.8;" x="57.6" xlink:href="#mde4c881ea0" y="55.170119"/>
      </g>
     </g>
     <g id="text_14">
      <text style="font-family:DejaVu Sans;font-size:10px;font-style:normal;font-weight:normal;text-anchor:end;" transform="rotate(-0, 50.6, 58.969338)" x="50.6" y="58.969338">0.6</text>
     </g>
    </g>
    <g id="text_15">
     <text style="font-family:DejaVu Sans;font-size:10px;font-style:normal;font-weight:normal;text-anchor:middle;" transform="rotate(-90, 28.617187, 174.528)" x="28.617187" y="174.528">Simulated Mean / Function Value</text>
    </g>
   </g>
   <g id="line2d_14">
    <path clip-path="url(#p4518b42c31)" d="M 73.832727 295.447949 
L 77.112066 291.423762 
L 80.391405 287.440015 
L 83.670744 283.496315 
L 86.950083 279.592279 
L 90.229421 275.727536 
L 93.50876 271.901726 
L 96.788099 268.114501 
L 100.067438 264.365521 
L 103.346777 260.65446 
L 106.626116 256.980998 
L 109.905455 253.344828 
L 113.184793 249.74565 
L 116.464132 246.183175 
L 119.743471 242.657122 
L 123.02281 239.167221 
L 126.302149 235.713207 
L 129.581488 232.294828 
L 132.860826 228.911836 
L 136.140165 225.563995 
L 139.419504 222.251075 
L 142.698843 218.972854 
L 145.978182 215.729118 
L 149.257521 212.519662 
L 152.53686 209.344286 
L 155.816198 206.2028 
L 159.095537 203.09502 
L 162.374876 200.02077 
L 165.654215 196.979881 
L 168.933554 193.972191 
L 172.212893 190.997545 
L 175.492231 188.055796 
L 178.77157 185.146803 
L 182.050909 182.270433 
L 185.330248 179.426559 
L 188.609587 176.615061 
L 191.888926 173.835827 
L 195.168264 171.088752 
L 198.447603 168.373736 
L 201.726942 165.690689 
L 205.006281 163.039526 
L 208.28562 160.420169 
L 211.564959 157.83255 
L 214.844298 155.276604 
L 218.123636 152.752277 
L 221.402975 150.25952 
L 224.682314 147.798294 
L 227.961653 145.368565 
L 231.240992 142.97031 
L 234.520331 140.603511 
L 237.799669 138.26816 
L 241.079008 135.964257 
L 244.358347 133.691811 
L 247.637686 131.450839 
L 250.917025 129.241369 
L 254.196364 127.063436 
L 257.475702 124.917087 
L 260.755041 122.802378 
L 264.03438 120.719377 
L 267.313719 118.668161 
L 270.593058 116.648821 
L 273.872397 114.661458 
L 277.151736 112.706187 
L 280.431074 110.783137 
L 283.710413 108.892451 
L 286.989752 107.034284 
L 290.269091 105.208811 
L 293.54843 103.416223 
L 296.827769 101.656728 
L 300.107107 99.930554 
L 303.386446 98.237949 
L 306.665785 96.579185 
L 309.945124 94.954558 
L 313.224463 93.36439 
L 316.503802 91.80903 
L 319.78314 90.288862 
L 323.062479 88.804301 
L 326.341818 87.355803 
L 329.621157 85.943863 
L 332.900496 84.569026 
L 336.179835 83.231888 
L 339.459174 81.933105 
L 342.738512 80.6734 
L 346.017851 79.453574 
L 349.29719 78.274515 
L 352.576529 77.137218 
L 355.855868 76.042795 
L 359.135207 74.992507 
L 362.414545 73.987787 
L 365.693884 73.030282 
L 368.973223 72.121905 
L 372.252562 71.264907 
L 375.531901 70.461982 
L 378.81124 69.716422 
L 382.090579 69.03236 
L 385.369917 68.415182 
L 388.649256 67.872292 
L 391.928595 67.414751 
L 395.207934 67.061834 
L 398.487273 66.867249 
" style="fill:none;stroke:#1f77b4;stroke-linecap:square;stroke-width:1.5;"/>
   </g>
   <g id="line2d_15">
    <path clip-path="url(#p4518b42c31)" d="M 73.832727 295.488 
L 77.112066 290.681642 
L 80.391405 285.875285 
L 83.670744 279.466808 
L 86.950083 274.66045 
L 90.229421 281.068927 
L 93.50876 269.854093 
L 96.788099 273.859391 
L 100.067438 263.445616 
L 103.346777 258.639258 
L 106.626116 268.251974 
L 109.905455 255.43502 
L 113.184793 238.612768 
L 116.464132 249.827603 
L 119.743471 245.822305 
L 123.02281 247.424424 
L 126.302149 236.209589 
L 129.581488 233.005351 
L 132.860826 219.387338 
L 136.140165 233.806411 
L 139.419504 226.596874 
L 142.698843 204.968265 
L 145.978182 220.989457 
L 149.257521 207.371444 
L 152.53686 212.177801 
L 155.816198 212.177801 
L 159.095537 180.936477 
L 162.374876 200.161907 
L 165.654215 195.35555 
L 168.933554 202.565086 
L 172.212893 186.543894 
L 175.492231 183.339656 
L 178.77157 180.936477 
L 182.050909 191.350252 
L 185.330248 182.538596 
L 188.609587 166.517404 
L 191.888926 203.366146 
L 195.168264 168.119523 
L 198.447603 176.130119 
L 201.726942 162.512106 
L 205.006281 165.716344 
L 208.28562 163.313166 
L 211.564959 147.291974 
L 214.844298 155.30257 
L 218.123636 168.119523 
L 221.402975 144.888795 
L 224.682314 142.485616 
L 227.961653 147.291974 
L 231.240992 124.061245 
L 234.520331 133.67396 
L 237.799669 123.260185 
L 241.079008 140.883497 
L 244.358347 141.684556 
L 247.637686 129.668662 
L 250.917025 117.652768 
L 254.196364 128.867603 
L 257.475702 112.846411 
L 260.755041 130.469722 
L 264.03438 118.453828 
L 267.313719 123.260185 
L 270.593058 113.64747 
L 273.872397 107.238993 
L 277.151736 102.432636 
L 280.431074 118.453828 
L 283.710413 112.045351 
L 286.989752 103.233695 
L 290.269091 99.228397 
L 293.54843 92.819921 
L 296.827769 92.819921 
L 300.107107 92.819921 
L 303.386446 84.008265 
L 306.665785 84.809325 
L 309.945124 105.636874 
L 313.224463 97.626278 
L 316.503802 96.024159 
L 319.78314 98.427338 
L 323.062479 99.228397 
L 326.341818 84.809325 
L 329.621157 82.406146 
L 332.900496 104.034755 
L 336.179835 80.002967 
L 339.459174 75.997669 
L 342.738512 98.427338 
L 346.017851 67.987073 
L 349.29719 63.981775 
L 352.576529 76.798728 
L 355.855868 66.384954 
L 359.135207 73.59449 
L 362.414545 81.605086 
L 365.693884 79.201907 
L 368.973223 80.002967 
L 372.252562 53.568 
L 375.531901 70.390252 
L 378.81124 84.008265 
L 382.090579 80.002967 
L 385.369917 71.191311 
L 388.649256 59.976477 
L 391.928595 56.772238 
L 395.207934 60.777536 
L 398.487273 58.374358 
" style="fill:none;stroke:#ff7f0e;stroke-linecap:square;stroke-width:1.5;"/>
   </g>
   <g id="patch_3">
    <path d="M 57.6 307.584 
L 57.6 41.472 
" style="fill:none;stroke:#000000;stroke-linecap:square;stroke-linejoin:miter;stroke-width:0.8;"/>
   </g>
   <g id="patch_4">
    <path d="M 414.72 307.584 
L 414.72 41.472 
" style="fill:none;stroke:#000000;stroke-linecap:square;stroke-linejoin:miter;stroke-width:0.8;"/>
   </g>
   <g id="patch_5">
    <path d="M 57.6 307.584 
L 414.72 307.584 
" style="fill:none;stroke:#000000;stroke-linecap:square;stroke-linejoin:miter;stroke-width:0.8;"/>
   </g>
   <g id="patch_6">
    <path d="M 57.6 41.472 
L 414.72 41.472 
" style="fill:none;stroke:#000000;stroke-linecap:square;stroke-linejoin:miter;stroke-width:0.8;"/>
   </g>
   <g id="text_16">
    <text style="font-family:DejaVu Sans;font-size:12px;font-style:normal;font-weight:normal;text-anchor:middle;" transform="rotate(-0, 236.16, 35.472)" x="236.16" y="35.472">Expected Value in arcsin(x)+sqrt(1-x*x)-1 Algorithm</text>
   </g>
   <g id="legend_1">
    <g id="patch_7">
     <path d="M 64.6 78.82825 
L 309.6625 78.82825 
Q 311.6625 78.82825 311.6625 76.82825 
L 311.6625 48.472 
Q 311.6625 46.472 309.6625 46.472 
L 64.6 46.472 
Q 62.6 46.472 62.6 48.472 
L 62.6 76.82825 
Q 62.6 78.82825 64.6 78.82825 
z
" style="fill:#ffffff;opacity:0.8;stroke:#cccccc;stroke-linejoin:miter;"/>
    </g>
    <g id="line2d_16">
     <path d="M 66.6 54.570437 
L 86.6 54.570437 
" style="fill:none;stroke:#1f77b4;stroke-linecap:square;stroke-width:1.5;"/>
    </g>
    <g id="line2d_17"/>
    <g id="text_17">
     <text style="font-family:DejaVu Sans;font-size:10px;font-style:normal;font-weight:normal;text-anchor:start;" transform="rotate(-0, 94.6, 58.070437)" x="94.6" y="58.070437">arcsin(x)+sqrt(1-x*x)-1</text>
    </g>
    <g id="line2d_18">
     <path d="M 66.6 69.248562 
L 86.6 69.248562 
" style="fill:none;stroke:#ff7f0e;stroke-linecap:square;stroke-width:1.5;"/>
    </g>
    <g id="line2d_19"/>
    <g id="text_18">
     <text style="font-family:DejaVu Sans;font-size:10px;font-style:normal;font-weight:normal;text-anchor:start;" transform="rotate(-0, 94.6, 72.748562)" x="94.6" y="72.748562">Simulated Mean of arcsin(x)+sqrt(1-x*x)-1</text>
    </g>
   </g>
  </g>
 </g>
 <defs>
  <clipPath id="p4518b42c31">
   <rect height="266.112" width="357.12" x="57.6" y="41.472"/>
  </clipPath>
 </defs>
</svg>

<svg height="460.8" viewBox="0 0 460.8 345.6" width="614.4" xmlns="http://www.w3.org/2000/svg" xmlns:xlink="http://www.w3.org/1999/xlink"><defs><style>*{stroke-linecap:butt;stroke-linejoin:round}</style></defs><g id="figure_1"><path d="M0 345.6h460.8V0H0z" fill="#fff" id="patch_1"/><g id="axes_1"><path d="M57.6 307.584h357.12V41.472H57.6z" fill="#fff" id="patch_2"/><g id="matplotlib.axis_1"><g id="xtick_1"><g id="line2d_1"><defs><path d="M0 0v3.5" id="m5532372585" stroke="#000" stroke-width=".8"/></defs><use x="73.8" xlink:href="#m5532372585" y="307.584" stroke="#000" stroke-width=".8"/></g><text x="73.8" y="322.182" font-family="DejaVu Sans" font-size="10" font-weight="400" text-anchor="middle" id="text_1">0.0</text></g><g id="xtick_2"><use x="138.744" xlink:href="#m5532372585" y="307.584" stroke="#000" stroke-width=".8" id="line2d_2"/><text x="138.744" y="322.182" font-family="DejaVu Sans" font-size="10" font-weight="400" text-anchor="middle" id="text_2">0.2</text></g><g id="xtick_3"><use x="203.688" xlink:href="#m5532372585" y="307.584" stroke="#000" stroke-width=".8" id="line2d_3"/><text x="203.688" y="322.182" font-family="DejaVu Sans" font-size="10" font-weight="400" text-anchor="middle" id="text_3">0.4</text></g><g id="xtick_4"><use x="268.632" xlink:href="#m5532372585" y="307.584" stroke="#000" stroke-width=".8" id="line2d_4"/><text x="268.632" y="322.182" font-family="DejaVu Sans" font-size="10" font-weight="400" text-anchor="middle" id="text_4">0.6</text></g><g id="xtick_5"><use x="333.576" xlink:href="#m5532372585" y="307.584" stroke="#000" stroke-width=".8" id="line2d_5"/><text x="333.576" y="322.182" font-family="DejaVu Sans" font-size="10" font-weight="400" text-anchor="middle" id="text_5">0.8</text></g><g id="xtick_6"><use x="398.52" xlink:href="#m5532372585" y="307.584" stroke="#000" stroke-width=".8" id="line2d_6"/><text x="398.52" y="322.182" font-family="DejaVu Sans" font-size="10" font-weight="400" text-anchor="middle" id="text_6">1.0</text></g><text x="236.16" y="335.861" font-family="DejaVu Sans" font-size="10" font-weight="400" text-anchor="middle" id="text_7">Input Coin&apos;s Heads Probability (λ)</text></g><g id="matplotlib.axis_2"><g id="ytick_1"><g id="line2d_7"><defs><path d="M0 0h-3.5" id="mde4c881ea0" stroke="#000" stroke-width=".8"/></defs><use x="57.6" xlink:href="#mde4c881ea0" y="295.488" stroke="#000" stroke-width=".8"/></g><text x="50.6" y="299.287" font-family="DejaVu Sans" font-size="10" font-weight="400" text-anchor="end" id="text_8">0.0</text></g><g id="ytick_2"><use x="57.6" xlink:href="#mde4c881ea0" y="255.435" stroke="#000" stroke-width=".8" id="line2d_8"/><text x="50.6" y="259.234" font-family="DejaVu Sans" font-size="10" font-weight="400" text-anchor="end" id="text_9">0.1</text></g><g id="ytick_3"><use x="57.6" xlink:href="#mde4c881ea0" y="215.382" stroke="#000" stroke-width=".8" id="line2d_9"/><text x="50.6" y="219.181" font-family="DejaVu Sans" font-size="10" font-weight="400" text-anchor="end" id="text_10">0.2</text></g><g id="ytick_4"><use x="57.6" xlink:href="#mde4c881ea0" y="175.329" stroke="#000" stroke-width=".8" id="line2d_10"/><text x="50.6" y="179.128" font-family="DejaVu Sans" font-size="10" font-weight="400" text-anchor="end" id="text_11">0.3</text></g><g id="ytick_5"><use x="57.6" xlink:href="#mde4c881ea0" y="135.276" stroke="#000" stroke-width=".8" id="line2d_11"/><text x="50.6" y="139.075" font-family="DejaVu Sans" font-size="10" font-weight="400" text-anchor="end" id="text_12">0.4</text></g><g id="ytick_6"><use x="57.6" xlink:href="#mde4c881ea0" y="95.223" stroke="#000" stroke-width=".8" id="line2d_12"/><text x="50.6" y="99.022" font-family="DejaVu Sans" font-size="10" font-weight="400" text-anchor="end" id="text_13">0.5</text></g><g id="ytick_7"><use x="57.6" xlink:href="#mde4c881ea0" y="55.17" stroke="#000" stroke-width=".8" id="line2d_13"/><text x="50.6" y="58.969" font-family="DejaVu Sans" font-size="10" font-weight="400" text-anchor="end" id="text_14">0.6</text></g><text transform="rotate(-90 28.617 174.528)" x="28.617" y="174.528" font-family="DejaVu Sans" font-size="10" font-weight="400" text-anchor="middle" id="text_15">Simulated Mean / Function Value</text></g><path clip-path="url(#p4518b42c31)" d="M73.833 295.448l3.28-4.024 3.278-3.984 3.28-3.944 3.28-3.904 3.278-3.864 3.28-3.826 3.28-3.787 3.278-3.75 3.28-3.71 3.28-3.674 3.278-3.636 3.28-3.6 3.28-3.562 3.278-3.526 3.28-3.49 3.28-3.454 3.278-3.418 3.28-3.383 3.28-3.348 3.279-3.313 3.279-3.278 3.28-3.244 3.279-3.21 3.279-3.175 3.28-3.141 3.279-3.108 3.279-3.074 3.28-3.041 3.279-3.008 3.279-2.974 3.28-2.942 3.279-2.91 3.279-2.876 3.28-2.843 3.279-2.812 3.279-2.78 3.28-2.746 3.279-2.715 3.279-2.683 3.28-2.651 3.279-2.62 3.279-2.587 3.28-2.556 3.279-2.525 3.279-2.492 3.28-2.462 3.279-2.43 3.279-2.398 3.28-2.366 3.279-2.336 3.279-2.304 3.28-2.272 3.279-2.241 3.279-2.21 3.28-2.178 3.279-2.146 3.279-2.115 3.28-2.083 3.279-2.05 3.28-2.02 3.278-1.988 3.28-1.955 3.28-1.923 3.278-1.89 3.28-1.859 3.28-1.825 3.278-1.793 3.28-1.76 3.28-1.725 3.278-1.693 3.28-1.659 3.28-1.624 3.278-1.59 3.28-1.556 3.28-1.52 3.278-1.485 3.28-1.448 3.28-1.412 3.278-1.375 3.28-1.337 3.28-1.299 3.279-1.26 3.279-1.22 3.28-1.178 3.279-1.138 3.279-1.094 3.28-1.05 3.279-1.005 3.279-.958 3.28-.908 3.279-.857 3.279-.803 3.28-.746 3.279-.684 3.279-.617 3.28-.543 3.279-.457 3.279-.353 3.28-.195" fill="none" stroke="#1f77b4" stroke-linecap="square" stroke-width="1.5" id="line2d_14"/><path clip-path="url(#p4518b42c31)" d="M73.833 295.488l3.28-4.806 3.278-4.807 3.28-6.408 3.28-4.807 3.278 6.409 3.28-11.215 3.28 4.005 3.278-10.413 3.28-4.807 3.28 9.613 3.278-12.817 3.28-16.822 3.28 11.215 3.278-4.006 3.28 1.602 3.28-11.214 3.278-3.205 3.28-13.618 3.28 14.42 3.279-7.21 3.279-21.629 3.28 16.021 3.279-13.618 3.279 4.807h3.28l3.279-31.242 3.279 19.226 3.28-4.806 3.279 7.21 3.279-16.022 3.28-3.204 3.279-2.404 3.279 10.414 3.28-8.811 3.279-16.022 3.279 36.85 3.28-35.247 3.279 8.01 3.279-13.618 3.28 3.204 3.279-2.403 3.279-16.021 3.28 8.01 3.279 12.818 3.279-23.231 3.28-2.403 3.279 4.806 3.279-23.23 3.28 9.612 3.279-10.414 3.279 17.623 3.28.802 3.279-12.016 3.279-12.016 3.28 11.215 3.279-16.022 3.279 17.624 3.28-12.016 3.279 4.806 3.28-9.613 3.278-6.408 3.28-4.806 3.28 16.02 3.278-6.408 3.28-8.811 3.28-4.006 3.278-6.408h6.56l3.278-8.812 3.28.801 3.28 20.828 3.278-8.01 3.28-1.603 3.28 2.403 3.278.801 3.28-14.419 3.28-2.403 3.278 21.629 3.28-24.032 3.28-4.005 3.279 22.43 3.279-30.44 3.28-4.006 3.279 12.817 3.279-10.414 3.28 7.21 3.279 8.01 3.279-2.403 3.28.801 3.279-26.435 3.279 16.822 3.28 13.618 3.279-4.005 3.279-8.812 3.28-11.215 3.279-3.204 3.279 4.006 3.28-2.404" fill="none" stroke="#ff7f0e" stroke-linecap="square" stroke-width="1.5" id="line2d_15"/><path d="M57.6 307.584V41.472" fill="none" stroke="#000" stroke-linecap="square" stroke-width=".8" id="patch_3"/><path d="M414.72 307.584V41.472" fill="none" stroke="#000" stroke-linecap="square" stroke-width=".8" id="patch_4"/><path d="M57.6 307.584h357.12" fill="none" stroke="#000" stroke-linecap="square" stroke-width=".8" id="patch_5"/><path d="M57.6 41.472h357.12" fill="none" stroke="#000" stroke-linecap="square" stroke-width=".8" id="patch_6"/><text x="236.16" y="35.472" font-family="DejaVu Sans" font-size="12" font-weight="400" text-anchor="middle" id="text_16">Expected Value in arcsin(x)+sqrt(1-x*x)-1 Algorithm</text><g id="legend_1"><path d="M64.6 78.828h245.063q2 0 2-2V48.472q0-2-2-2H64.6q-2 0-2 2v28.356q0 2 2 2z" fill="#fff" opacity=".8" stroke="#ccc" id="patch_7"/><path d="M66.6 54.57h20" fill="none" stroke="#1f77b4" stroke-linecap="square" stroke-width="1.5" id="line2d_16"/><text x="94.6" y="58.07" font-family="DejaVu Sans" font-size="10" font-weight="400" id="text_17">arcsin(x)+sqrt(1-x*x)-1</text><path d="M66.6 69.249h20" fill="none" stroke="#ff7f0e" stroke-linecap="square" stroke-width="1.5" id="line2d_18"/><text x="94.6" y="72.749" font-family="DejaVu Sans" font-size="10" font-weight="400" id="text_18">Simulated Mean of arcsin(x)+sqrt(1-x*x)-1</text></g></g></g><defs><clipPath id="p4518b42c31"><path d="M57.6 41.472h357.12v266.112H57.6z"/></clipPath></defs></svg>
